X:1
T:Giunta la tomba
T:Giunta la tomba
T:Piero Benedetti
T:Source : Musische di P.Benedetti---Libro secondo---Venetia---R.Amadino---1613. Editor : André Vierendeels (31/05/15).
T:Notes : Original clefs C2, F4 Figures in BC are notated in original print Composer called "Pietro" in this book Text by Torquato Tasso
C:Piero Benedetti
%%score 1 2
L:1/8
Q:1/4=76
M:4/4
K:C
V:1 treble nm="Soprano" snm="S"
V:2 bass nm="BC" snm="BC"
V:1
 z dGA B4 | B4 z BBB | d2 G/A/B/A/ B<A B<G | A4 A4 | z2 A^F F2 FE | ^F3 A c3 e | B4 B4 | %7
w: Giun- ta la tom-|ba o- v'al tuo|spir- to _ _ _ _ _ _ _|vi- vo|do- lo- ro- sa pri-|gio- ne'il Ciel pre-|scris- se,|
 e2 cc c3 B | c4 c4 | c2 c>B d4 | d4 z BAG | A4 A2 z B | B3 A A2 A B/c/ | A8 | G8 | z dGA B4 | %16
w: pal- li- do, fred- do,|mu- to,|et qua- si pri-|vo, di- mo- vi-|men- to, al|mal- mo gl'oc- chi- af- *|fis-|se.|al fin, scor- gan-|
 B4 z BBB | d2 G/A/B/A/ B<A B<G | A4 A4 | z2 A^F F2 FA | ^F3 A c3 e | B4 B4 | z e c>B c4 | %23
w: do un la- gri-|mo- so _ _ _ _ _ _ _|vi- vo,|in un lan- gui- d'ohi|me, pro- rup- p'e|dis- se:|"O sas- so'a- ma-|
 c2 z c cc c>B | d4 d3 B | BBAG A4 | A2 z B B2 AB/c/ | A8 | G8 |] %29
w: to et ho- no- ra- to|tan- to, che|den- tro'ahi le mie fiam-|me e fuor il _ _|pian-|to."|
V:2
 G,,8 | G,4 G,,4 | G,4 E,4 |"^#" D,8 | D,8 | D,4 A,,4 |"^#" E,8 | C,8 | C,8 | C,4 G,,4 | G,4 G,,4 | %11
"^#" D,8 | B,,4 ^C,4 |"^4""^#" D,4 D,4 | G,,8 | G,,8 | G,4 G,,4 | G,4 E,4 |"^#" D,8 | D,8 | %20
 D,4 A,,4 |"^#" E,8 | C,8 | C,8 | G,4 G,,4 |"^#" G,4 D,4 |"^#" D,2 B,,2 ^C,4 |"^4""^#" D,4 D,4 | %28
 G,,8 |] %29

